X:1
T:Title
%%score { 1 | 2 }
L:1/8
Q:1/4=100
M:2/4
K:E
V:1 treble nm="Grand Piano"
V:2 bass 
V:1
 G2 =GA | G2 E2 | E2 [DF][DF] | G4 | B2 ^Ac | B2 G2 | F2 G^A | [DB]4 | [DA]2 [EA][FA] | G2 B2 | %10
w: J.~J.~Jelley * *||||||||||
 c2 BA | G4 | e2 [CEF][CEF] | [Ec]2 [CFA]2 | [B,EG]2 [B,DG][A,DF] | [G,E]4 |] %16
w: ||||||
V:2
 [E,B,E]2 [E,^A,E][E,CE] | [E,B,E]2 [E,G,B,]2 | [C,G,B,]2 [B,,B,][B,,B,] | [E,B,E]4 | %4
 [E,G,E]2 [E,F,E][E,A,E] | [E,G,E]2 [E,B,E]2 | [F,B,D]2 [F,^A,E][G,CE] | [B,,B,]4 | %8
 [B,,B,]2 [C,B,][D,B,] | [E,B,E]2 [G,B,E]2 | [A,E]2 [G,B,E][F,B,D] | [E,B,E]4 | [A,,CE]2 A,,A,, | %13
 [A,,A,]2 A,,2 | B,,2 B,,B,, | E,4 |] %16

